src/icons/solid/volume-off.svg

<svg width="20" height="20" viewBox="0 0 20 20" fill="none" xmlns="http://www.w3.org/2000/svg">
<path fill-rule="evenodd" clip-rule="evenodd" d="M9.38268 3.07615C9.75636 3.23093 10 3.59557 10 4.00003V16C10 16.4045 9.75636 16.7691 9.38268 16.9239C9.00901 17.0787 8.57889 16.9931 8.29289 16.7071L4.58579 13H2C1.44772 13 1 12.5523 1 12V8.00003C1 7.44774 1.44772 7.00003 2 7.00003H4.58579L8.29289 3.29292C8.57889 3.00692 9.00901 2.92137 9.38268 3.07615Z" fill="#4A5568"/>
<path fill-rule="evenodd" clip-rule="evenodd" d="M12.2929 7.29289C12.6834 6.90237 13.3166 6.90237 13.7071 7.29289L15 8.58579L16.2929 7.29289C16.6834 6.90237 17.3166 6.90237 17.7071 7.29289C18.0976 7.68342 18.0976 8.31658 17.7071 8.70711L16.4142 10L17.7071 11.2929C18.0976 11.6834 18.0976 12.3166 17.7071 12.7071C17.3166 13.0976 16.6834 13.0976 16.2929 12.7071L15 11.4142L13.7071 12.7071C13.3166 13.0976 12.6834 13.0976 12.2929 12.7071C11.9024 12.3166 11.9024 11.6834 12.2929 11.2929L13.5858 10L12.2929 8.70711C11.9024 8.31658 11.9024 7.68342 12.2929 7.29289Z" fill="#4A5568"/>
</svg>

<svg xmlns="http://www.w3.org/2000/svg" viewBox="0 0 20 20" fill="currentColor">
  <path fill-rule="evenodd" d="M9.383 3.076A1 1 0 0110 4v12a1 1 0 01-1.707.707L4.586 13H2a1 1 0 01-1-1V8a1 1 0 011-1h2.586l3.707-3.707a1 1 0 011.09-.217zM12.293 7.293a1 1 0 011.414 0L15 8.586l1.293-1.293a1 1 0 111.414 1.414L16.414 10l1.293 1.293a1 1 0 01-1.414 1.414L15 11.414l-1.293 1.293a1 1 0 01-1.414-1.414L13.586 10l-1.293-1.293a1 1 0 010-1.414z" clip-rule="evenodd"/>
</svg>
